X: 675
T: Planxty Lady Wrixon
C:O'Carolan
B:O'Neill's 675
Z: 1997 by John Chambers <jc@trillian.mit.edu>
N:"Lively"
M:6/8
L:1/8
K:Gm
e \
| d2G B2G | d2G d=ef | c2F A2F | c2F ABc |
| d2G B2G | d2G d=ef | c2A f2A | (G/A/B).G G2 :|
|| (d//=e//^f/) \
| gz g afd | gz g afd | fz f =ege | f3 d2f |
| =ege dfd | c=ec BdB | AcA AfA | (G/A/B)A G2 |]


